images/polymath_logo.svg

<svg height="250" viewBox="0 0 250 250" width="250" xmlns="http://www.w3.org/2000/svg"><path d="m226.316406 8.351562-24.046875 19.59375 10.289063 12.007813zm0 0" fill="#0000cf"/><path d="m151.417969.222656 33.507812 65.007813-3.59375-40.125zm0 0" fill="#0000ab"/><path d="m151.417969.222656.050781.167969.023438-.007813 28.703124 98.972657 4.730469-34.125zm0 0" fill="#0014bf"/><path d="m151.46875.390625-17.140625 5.464844 45.867187 93.5-28.703124-98.972657zm0 0" fill="#0000cf"/><path d="m134.328125 5.855469-3.867187 62.03125 49.734374 31.46875zm0 0" fill="#0000e3"/><path d="m134.328125 5.855469-55.136719 73.699219 51.269532-11.667969zm0 0" fill="#0000cf"/><path d="m180.195312 99.355469-54.839843 24.015625 30.097656-5.464844zm0 0" fill="#0014bf"/><path d="m125.355469 123.371094-30.296875 8.363281 30.816406 8.359375zm0 0" fill="#001cd1"/><path d="m155.453125 117.90625-30.097656 5.464844.519531 16.722656zm0 0" fill="#0000ab"/><path d="m130.460938 67.886719-51.269532 11.667969 46.164063 43.816406zm0 0" fill="#0000ab"/><path d="m79.191406 79.554688 15.867188 52.179687 30.296875-8.363281zm0 0" fill="#0000cf"/><path d="m79.191406 79.554688.578125 70.171874 15.289063-17.992187zm0 0" fill="#0000ab"/><path d="m53.214844 93.617188-10.738282 18.464843 16.832032 40.988281zm0 0" fill="#001cd1"/><path d="m42.476562 112.082031-19.429687.40625 19.46875 18.746094zm0 0" fill="#0000ab"/><path d="m23.046875 112.496094 1.558594 12.964844 17.910156 5.808593v-.035156zm0 0" fill="#0000e3"/><path d="m23.046875 112.496094-9.578125 28.855468 11.136719-15.890624zm0 0" fill="#0000cf"/><path d="m0 147.628906 12.6875 3.351563.777344-9.628907zm0 0" fill="#0000ab"/><path d="m24.601562 125.460938-11.132812 15.890624-.777344 9.628907zm0 0" fill="#0000e3"/><path d="m42.578125 158.414062-.0625-27.136718zm0 0" fill="#404a80"/><path d="m42.476562 112.082031.039063 19.152344v.035156l.0625 27.144531 16.730469-5.34375zm0 0" fill="#0014bf"/><path d="m47.332031 189.195312-13.921875 9.054688 1.796875 31.382812zm0 0" fill="#0000cf"/><path d="m33.410156 198.25-5.199218 36.824219 6.996093-5.441407zm0 0" fill="#0000ab"/><path d="m22.558594 249.777344 14.523437-4.820313-1.875-15.324219zm0 0" fill="#0000cf"/><path d="m28.207031 235.074219-5.644531 14.703125 12.644531-20.144532zm0 0" fill="#0000e3"/><path d="m59.308594 153.070312-16.730469 5.34375-9.167969 39.835938zm0 0" fill="#0000ab"/><path d="m59.308594 153.070312-25.898438 45.179688 13.921875-9.054688 23.371094-15.210937zm0 0" fill="#0000e3"/><path d="m79.191406 79.554688-25.976562 14.0625 6.09375 59.453124zm0 0" fill="#0000cf"/><path d="m79.191406 79.554688-19.882812 73.515624 20.460937-3.34375zm0 0" fill="#0000e3"/><path d="m79.769531 149.726562-20.460937 3.34375 11.398437 20.914063zm0 0" fill="#0000ab"/><path d="m179.542969 117.644531-24.089844.261719 8.726563 37.6875zm0 0" fill="#0000cf"/><path d="m180.195312 99.355469-24.742187 18.550781 24.089844-.261719zm0 0" fill="#0000e3"/><path d="m155.453125 117.90625-4.710937 33.621094 13.4375 4.066406zm0 0" fill="#0014bf"/><path d="m150.742188 151.527344-5.8125 17.601562 19.25-13.535156zm0 0" fill="#0000cf"/><path d="m150.742188 151.527344-13.84375 1.292968-3.621094 28.863282zm0 0" fill="#0000cf"/><path d="m150.742188 151.527344-17.464844 30.15625 11.652344-12.554688zm0 0" fill="#0000ab"/><path d="m225.179688 1.960938-22.910157 25.984374 24.042969-19.59375zm0 0" fill="#0014bf"/><path d="m225.179688 1.960938 1.132812 6.390624 17.644531-7.890624zm0 0" fill="#0000bf"/><path d="m202.710938 49.359375 10.421874 11.855469 7.734376-3.667969 17.152343-8.144531zm0 0" fill="#0000bf"/><path d="m233.085938 43.019531-16.164063 3.375-14.210937 2.964844 35.308593.042969zm0 0" fill="#00009e"/><path d="m247.011719 23.289062-13.925781 19.730469 4.9375 6.382813zm0 0" fill="#0014bf"/><path d="m238.023438 49.402344 11.980468-23.871094-2.992187-2.242188zm0 0" fill="#0000e3"/><path d="m247.011719 23.289062 2.988281 2.242188-.503906-13.542969zm0 0" fill="#000f91"/><path d="m184.925781 65.230469-4.730469 34.125 8.132813 13.550781zm0 0" fill="#0000ab"/><path d="m213.132812 61.214844-28.207031 4.015625 3.402344 47.675781zm0 0" fill="#0000cf"/><path d="m181.332031 25.105469 3.59375 40.125 28.207031-4.015625zm0 0" fill="#0000e3"/><path d="m212.5625 39.953125-9.851562 9.40625 14.210937-2.964844zm0 0" fill="#0000ab"/><path d="m181.332031 25.105469 21.378907 24.253906 9.847656-9.40625zm0 0" fill="#0000cf"/><path d="m181.332031 25.105469 31.226563 14.847656-10.289063-12.007813zm0 0" fill="#0000ab"/><path d="m213.132812 61.214844-1.296874 75.496094 12.582031-60.703126zm0 0" fill="#0014bf"/><path d="m213.132812 61.214844-24.804687 51.691406 23.507813 23.804688zm0 0" fill="#0000e3"/><path d="m220.867188 57.539062-7.734376 3.675782 11.285157 14.792968zm0 0" fill="#0000ab"/><path d="m224.417969 76.007812-12.582031 60.703126 14.074218-10.433594zm0 0" fill="#0000ab"/><path d="m130.460938 67.886719-5.105469 55.484375 54.839843-24.015625zm0 0" fill="#0000cf"/><g fill="#170087"><path d="m40.628906 232.390625h1.1875v5.355469h.6875v-5.355469h1.1875v-.964844h-3.0625zm0 0"/><path d="m48.328125 231.425781h-.703125l-1.214844 4.640625-1.210937-4.640625h-.828125v6.320313h.679687v-4.300782l1.183594 4.300782h.359375l1.179688-4.300782v4.300782h.679687v-6.320313zm0 0"/></g></svg>

<svg xmlns="http://www.w3.org/2000/svg" xmlns:xlink="http://www.w3.org/1999/xlink" width="250px" height="250px" viewBox="0 0 250 250" version="1.1">
<g id="surface1">
<path style=" stroke:none;fill-rule:nonzero;fill:rgb(0%,0%,81.176472%);fill-opacity:1;" d="M 226.316406 8.351562 L 202.269531 27.945312 L 212.558594 39.953125 Z M 226.316406 8.351562 "/>
<path style=" stroke:none;fill-rule:nonzero;fill:rgb(0%,0%,67.058825%);fill-opacity:1;" d="M 151.417969 0.222656 L 184.925781 65.230469 L 181.332031 25.105469 Z M 151.417969 0.222656 "/>
<path style=" stroke:none;fill-rule:nonzero;fill:rgb(0%,7.843138%,74.901962%);fill-opacity:1;" d="M 151.417969 0.222656 L 151.46875 0.390625 L 151.492188 0.382812 L 180.195312 99.355469 L 184.925781 65.230469 Z M 151.417969 0.222656 "/>
<path style=" stroke:none;fill-rule:nonzero;fill:rgb(0%,0%,81.176472%);fill-opacity:1;" d="M 151.46875 0.390625 L 134.328125 5.855469 L 180.195312 99.355469 L 151.492188 0.382812 Z M 151.46875 0.390625 "/>
<path style=" stroke:none;fill-rule:nonzero;fill:rgb(0%,0%,89.019608%);fill-opacity:1;" d="M 134.328125 5.855469 L 130.460938 67.886719 L 180.195312 99.355469 Z M 134.328125 5.855469 "/>
<path style=" stroke:none;fill-rule:nonzero;fill:rgb(0%,0%,81.176472%);fill-opacity:1;" d="M 134.328125 5.855469 L 79.191406 79.554688 L 130.460938 67.886719 Z M 134.328125 5.855469 "/>
<path style=" stroke:none;fill-rule:nonzero;fill:rgb(0%,7.843138%,74.901962%);fill-opacity:1;" d="M 180.195312 99.355469 L 125.355469 123.371094 L 155.453125 117.90625 Z M 180.195312 99.355469 "/>
<path style=" stroke:none;fill-rule:nonzero;fill:rgb(0%,10.980392%,81.960785%);fill-opacity:1;" d="M 125.355469 123.371094 L 95.058594 131.734375 L 125.875 140.09375 Z M 125.355469 123.371094 "/>
<path style=" stroke:none;fill-rule:nonzero;fill:rgb(0%,0%,67.058825%);fill-opacity:1;" d="M 155.453125 117.90625 L 125.355469 123.371094 L 125.875 140.09375 Z M 155.453125 117.90625 "/>
<path style=" stroke:none;fill-rule:nonzero;fill:rgb(0%,0%,67.058825%);fill-opacity:1;" d="M 130.460938 67.886719 L 79.191406 79.554688 L 125.355469 123.371094 Z M 130.460938 67.886719 "/>
<path style=" stroke:none;fill-rule:nonzero;fill:rgb(0%,0%,81.176472%);fill-opacity:1;" d="M 79.191406 79.554688 L 95.058594 131.734375 L 125.355469 123.371094 Z M 79.191406 79.554688 "/>
<path style=" stroke:none;fill-rule:nonzero;fill:rgb(0%,0%,67.058825%);fill-opacity:1;" d="M 79.191406 79.554688 L 79.769531 149.726562 L 95.058594 131.734375 Z M 79.191406 79.554688 "/>
<path style=" stroke:none;fill-rule:nonzero;fill:rgb(0%,10.980392%,81.960785%);fill-opacity:1;" d="M 53.214844 93.617188 L 42.476562 112.082031 L 59.308594 153.070312 Z M 53.214844 93.617188 "/>
<path style=" stroke:none;fill-rule:nonzero;fill:rgb(0%,0%,67.058825%);fill-opacity:1;" d="M 42.476562 112.082031 L 23.046875 112.488281 L 42.515625 131.234375 Z M 42.476562 112.082031 "/>
<path style=" stroke:none;fill-rule:nonzero;fill:rgb(0%,0%,89.019608%);fill-opacity:1;" d="M 23.046875 112.496094 L 24.605469 125.460938 L 42.515625 131.269531 L 42.515625 131.234375 Z M 23.046875 112.496094 "/>
<path style=" stroke:none;fill-rule:nonzero;fill:rgb(0%,0%,81.176472%);fill-opacity:1;" d="M 23.046875 112.496094 L 13.46875 141.351562 L 24.605469 125.460938 Z M 23.046875 112.496094 "/>
<path style=" stroke:none;fill-rule:nonzero;fill:rgb(0%,0%,67.058825%);fill-opacity:1;" d="M 0 147.628906 L 12.6875 150.980469 L 13.464844 141.351562 Z M 0 147.628906 "/>
<path style=" stroke:none;fill-rule:nonzero;fill:rgb(0%,0%,89.019608%);fill-opacity:1;" d="M 24.601562 125.460938 L 13.46875 141.351562 L 12.691406 150.980469 Z M 24.601562 125.460938 "/>
<path style=" stroke:none;fill-rule:nonzero;fill:rgb(25.098041%,29.019609%,50.196081%);fill-opacity:1;" d="M 42.578125 158.414062 L 42.515625 131.277344 Z M 42.578125 158.414062 "/>
<path style=" stroke:none;fill-rule:nonzero;fill:rgb(0%,7.843138%,74.901962%);fill-opacity:1;" d="M 42.476562 112.082031 L 42.515625 131.234375 L 42.515625 131.269531 L 42.578125 158.414062 L 59.308594 153.070312 Z M 42.476562 112.082031 "/>
<path style=" stroke:none;fill-rule:nonzero;fill:rgb(0%,0%,81.176472%);fill-opacity:1;" d="M 47.332031 189.195312 L 33.410156 198.25 L 35.207031 229.632812 Z M 47.332031 189.195312 "/>
<path style=" stroke:none;fill-rule:nonzero;fill:rgb(0%,0%,67.058825%);fill-opacity:1;" d="M 33.410156 198.25 L 28.210938 235.074219 L 35.207031 229.632812 Z M 33.410156 198.25 "/>
<path style=" stroke:none;fill-rule:nonzero;fill:rgb(0%,0%,81.176472%);fill-opacity:1;" d="M 22.558594 249.777344 L 37.082031 244.957031 L 35.207031 229.632812 Z M 22.558594 249.777344 "/>
<path style=" stroke:none;fill-rule:nonzero;fill:rgb(0%,0%,89.019608%);fill-opacity:1;" d="M 28.207031 235.074219 L 22.5625 249.777344 L 35.207031 229.632812 Z M 28.207031 235.074219 "/>
<path style=" stroke:none;fill-rule:nonzero;fill:rgb(0%,0%,67.058825%);fill-opacity:1;" d="M 59.308594 153.070312 L 42.578125 158.414062 L 33.410156 198.25 Z M 59.308594 153.070312 "/>
<path style=" stroke:none;fill-rule:nonzero;fill:rgb(0%,0%,89.019608%);fill-opacity:1;" d="M 59.308594 153.070312 L 33.410156 198.25 L 47.332031 189.195312 L 70.703125 173.984375 Z M 59.308594 153.070312 "/>
<path style=" stroke:none;fill-rule:nonzero;fill:rgb(0%,0%,81.176472%);fill-opacity:1;" d="M 79.191406 79.554688 L 53.214844 93.617188 L 59.308594 153.070312 Z M 79.191406 79.554688 "/>
<path style=" stroke:none;fill-rule:nonzero;fill:rgb(0%,0%,89.019608%);fill-opacity:1;" d="M 79.191406 79.554688 L 59.308594 153.070312 L 79.769531 149.726562 Z M 79.191406 79.554688 "/>
<path style=" stroke:none;fill-rule:nonzero;fill:rgb(0%,0%,67.058825%);fill-opacity:1;" d="M 79.769531 149.726562 L 59.308594 153.070312 L 70.707031 173.984375 Z M 79.769531 149.726562 "/>
<path style=" stroke:none;fill-rule:nonzero;fill:rgb(0%,0%,81.176472%);fill-opacity:1;" d="M 179.542969 117.644531 L 155.453125 117.90625 L 164.179688 155.59375 Z M 179.542969 117.644531 "/>
<path style=" stroke:none;fill-rule:nonzero;fill:rgb(0%,0%,89.019608%);fill-opacity:1;" d="M 180.195312 99.355469 L 155.453125 117.90625 L 179.542969 117.644531 Z M 180.195312 99.355469 "/>
<path style=" stroke:none;fill-rule:nonzero;fill:rgb(0%,7.843138%,74.901962%);fill-opacity:1;" d="M 155.453125 117.90625 L 150.742188 151.527344 L 164.179688 155.59375 Z M 155.453125 117.90625 "/>
<path style=" stroke:none;fill-rule:nonzero;fill:rgb(0%,0%,81.176472%);fill-opacity:1;" d="M 150.742188 151.527344 L 144.929688 169.128906 L 164.179688 155.59375 Z M 150.742188 151.527344 "/>
<path style=" stroke:none;fill-rule:nonzero;fill:rgb(0%,0%,81.176472%);fill-opacity:1;" d="M 150.742188 151.527344 L 136.898438 152.820312 L 133.277344 181.683594 Z M 150.742188 151.527344 "/>
<path style=" stroke:none;fill-rule:nonzero;fill:rgb(0%,0%,67.058825%);fill-opacity:1;" d="M 150.742188 151.527344 L 133.277344 181.683594 L 144.929688 169.128906 Z M 150.742188 151.527344 "/>
<path style=" stroke:none;fill-rule:nonzero;fill:rgb(0%,7.843138%,74.901962%);fill-opacity:1;" d="M 225.179688 1.960938 L 202.269531 27.945312 L 226.3125 8.351562 Z M 225.179688 1.960938 "/>
<path style=" stroke:none;fill-rule:nonzero;fill:rgb(0%,0%,74.901962%);fill-opacity:1;" d="M 225.179688 1.960938 L 226.3125 8.351562 L 243.957031 0.460938 Z M 225.179688 1.960938 "/>
<path style=" stroke:none;fill-rule:nonzero;fill:rgb(0%,0%,74.901962%);fill-opacity:1;" d="M 202.710938 49.359375 L 213.132812 61.214844 L 220.867188 57.546875 L 238.019531 49.402344 Z M 202.710938 49.359375 "/>
<path style=" stroke:none;fill-rule:nonzero;fill:rgb(0%,0%,61.960787%);fill-opacity:1;" d="M 233.085938 43.019531 L 216.921875 46.394531 L 202.710938 49.359375 L 238.019531 49.402344 Z M 233.085938 43.019531 "/>
<path style=" stroke:none;fill-rule:nonzero;fill:rgb(0%,7.843138%,74.901962%);fill-opacity:1;" d="M 247.011719 23.289062 L 233.085938 43.019531 L 238.023438 49.402344 Z M 247.011719 23.289062 "/>
<path style=" stroke:none;fill-rule:nonzero;fill:rgb(0%,0%,89.019608%);fill-opacity:1;" d="M 238.023438 49.402344 L 250.003906 25.53125 L 247.011719 23.289062 Z M 238.023438 49.402344 "/>
<path style=" stroke:none;fill-rule:nonzero;fill:rgb(0%,5.882353%,56.862748%);fill-opacity:1;" d="M 247.011719 23.289062 L 250 25.53125 L 249.496094 11.988281 Z M 247.011719 23.289062 "/>
<path style=" stroke:none;fill-rule:nonzero;fill:rgb(0%,0%,67.058825%);fill-opacity:1;" d="M 184.925781 65.230469 L 180.195312 99.355469 L 188.328125 112.90625 Z M 184.925781 65.230469 "/>
<path style=" stroke:none;fill-rule:nonzero;fill:rgb(0%,0%,81.176472%);fill-opacity:1;" d="M 213.132812 61.214844 L 184.925781 65.230469 L 188.328125 112.90625 Z M 213.132812 61.214844 "/>
<path style=" stroke:none;fill-rule:nonzero;fill:rgb(0%,0%,89.019608%);fill-opacity:1;" d="M 181.332031 25.105469 L 184.925781 65.230469 L 213.132812 61.214844 Z M 181.332031 25.105469 "/>
<path style=" stroke:none;fill-rule:nonzero;fill:rgb(0%,0%,67.058825%);fill-opacity:1;" d="M 212.5625 39.953125 L 202.710938 49.359375 L 216.921875 46.394531 Z M 212.5625 39.953125 "/>
<path style=" stroke:none;fill-rule:nonzero;fill:rgb(0%,0%,81.176472%);fill-opacity:1;" d="M 181.332031 25.105469 L 202.710938 49.359375 L 212.558594 39.953125 Z M 181.332031 25.105469 "/>
<path style=" stroke:none;fill-rule:nonzero;fill:rgb(0%,0%,67.058825%);fill-opacity:1;" d="M 181.332031 25.105469 L 212.558594 39.953125 L 202.269531 27.945312 Z M 181.332031 25.105469 "/>
<path style=" stroke:none;fill-rule:nonzero;fill:rgb(0%,7.843138%,74.901962%);fill-opacity:1;" d="M 213.132812 61.214844 L 211.835938 136.710938 L 224.417969 76.007812 Z M 213.132812 61.214844 "/>
<path style=" stroke:none;fill-rule:nonzero;fill:rgb(0%,0%,89.019608%);fill-opacity:1;" d="M 213.132812 61.214844 L 188.328125 112.90625 L 211.835938 136.710938 Z M 213.132812 61.214844 "/>
<path style=" stroke:none;fill-rule:nonzero;fill:rgb(0%,0%,67.058825%);fill-opacity:1;" d="M 220.867188 57.539062 L 213.132812 61.214844 L 224.417969 76.007812 Z M 220.867188 57.539062 "/>
<path style=" stroke:none;fill-rule:nonzero;fill:rgb(0%,0%,67.058825%);fill-opacity:1;" d="M 224.417969 76.007812 L 211.835938 136.710938 L 225.910156 126.277344 Z M 224.417969 76.007812 "/>
<path style=" stroke:none;fill-rule:nonzero;fill:rgb(0%,0%,81.176472%);fill-opacity:1;" d="M 130.460938 67.886719 L 125.355469 123.371094 L 180.195312 99.355469 Z M 130.460938 67.886719 "/>
<path style=" stroke:none;fill-rule:nonzero;fill:rgb(9.019608%,0%,52.941179%);fill-opacity:1;" d="M 40.628906 232.390625 L 41.816406 232.390625 L 41.816406 237.746094 L 42.503906 237.746094 L 42.503906 232.390625 L 43.691406 232.390625 L 43.691406 231.425781 L 40.628906 231.425781 Z M 40.628906 232.390625 "/>
<path style=" stroke:none;fill-rule:nonzero;fill:rgb(9.019608%,0%,52.941179%);fill-opacity:1;" d="M 48.328125 231.425781 L 47.625 231.425781 L 46.410156 236.066406 L 45.199219 231.425781 L 44.371094 231.425781 L 44.371094 237.746094 L 45.050781 237.746094 L 45.050781 233.445312 L 46.234375 237.746094 L 46.59375 237.746094 L 47.773438 233.445312 L 47.773438 237.746094 L 48.453125 237.746094 L 48.453125 231.425781 Z M 48.328125 231.425781 "/>
</g>
</svg>
